src/epub/images/titlepage.svg

<?xml version="1.0" encoding="utf-8"?>
<svg xmlns="http://www.w3.org/2000/svg" xmlns:svg="http://www.w3.org/2000/svg" version="1.1" viewBox="0 0 1400 440">
	<title>The titlepage for the Standard Ebooks edition of Far from the Madding Crowd, by Thomas Hardy</title>
	<g>
		<path d="m 479.63889,52.807016 -44.63158,0 0,77.192984 17.59064,0 0,-30.970761 24.98246,0 0,-15.438597 -24.98246,0 0,-15.345029 27.04094,0 0,-15.438597 z"/>
		<path d="m 528.91959,52.807016 -16.2807,0 L 481.48099,130 l 18.90059,0 5.7076,-15.4386 29.38012,0 5.7076,15.4386 18.90058,0 -31.15789,-77.192984 z m 0.5614,46.31579 -17.40351,0 8.60819,-22.45614 0.18713,0 8.60819,22.45614 z"/>
		<path d="m 567.99708,52.807016 0,77.192984 17.59065,0 0,-30.502925 L 609.16667,130 l 22.36258,0 -26.5731,-31.906433 c 9.45029,-2.994152 15.81286,-10.760234 15.81286,-22.362574 0,-15.157895 -10.8538,-22.923977 -25.16959,-22.923977 l -27.60234,0 z m 17.59065,34.245615 0,-20.210527 2.05848,0 c 6.64327,0 14.59649,0.467836 14.59649,10.105263 0,9.637428 -7.95322,10.105264 -14.59649,10.105264 l -2.05848,0 z"/>
		<path d="m 715.28217,52.807016 -44.63158,0 0,77.192984 17.59064,0 0,-30.970761 24.98246,0 0,-15.438597 -24.98246,0 0,-15.345029 27.04094,0 0,-15.438597 z"/>
		<path d="m 728.64766,52.807016 0,77.192984 17.59064,0 0,-30.502925 L 769.81725,130 l 22.36257,0 -26.5731,-31.906433 c 9.45029,-2.994152 15.81287,-10.760234 15.81287,-22.362574 0,-15.157895 -10.8538,-22.923977 -25.16959,-22.923977 l -27.60234,0 z m 17.59064,34.245615 0,-20.210527 2.05848,0 c 6.64327,0 14.59649,0.467836 14.59649,10.105263 0,9.637428 -7.95322,10.105264 -14.59649,10.105264 l -2.05848,0 z"/>
		<path d="m 797.25439,91.356724 c 0,22.549706 16.09357,40.046786 38.92398,40.046786 22.17544,0 38.83041,-17.49708 38.83041,-40.046786 0,-22.549708 -17.40351,-39.953217 -38.83041,-39.953217 -21.23977,0 -38.92398,17.403509 -38.92398,39.953217 z m 18.99416,0 c 0,-11.508772 6.36257,-23.017544 19.92982,-23.017544 13.66082,0 19.83626,11.508772 19.83626,23.017544 0,11.508776 -5.80117,23.017546 -19.83626,23.017546 -14.40936,0 -19.92982,-11.50877 -19.92982,-23.017546 z"/>
		<path d="m 951.58336,130 17.59064,0 -6.92398,-77.192984 -18.71345,0 -17.12281,44.538013 -17.1228,-44.538013 -18.71345,0 L 883.65353,130 l 17.59064,0 3.64913,-45.754387 0.46783,0 15.81287,45.286547 10.47953,0 15.81287,-45.286547 0.46783,0 L 951.58336,130 Z"/>
	</g>
	<g>
		<path d="m 108.84794,168.24561 18.33919,0 0,61.75439 17.59064,0 0,-61.75439 18.33918,0 0,-15.43859 -54.26901,0 0,15.43859 z"/>
		<path d="m 192.04239,199.02924 24.88889,0 0,30.97076 17.59064,0 0,-77.19298 -17.59064,0 0,30.78362 -24.88889,0 0,-30.78362 -17.59065,0 0,77.19298 17.59065,0 0,-30.97076 z"/>
		<path d="m 294.88742,152.80702 -44.16374,0 0,77.19298 44.16374,0 0,-15.4386 -26.5731,0 0,-15.53216 25.4503,0 0,-15.4386 -25.4503,0 0,-15.34503 26.5731,0 0,-15.43859 z"/>
		<path d="m 404.39766,230 17.59064,0 -6.92397,-77.19298 -18.71345,0 -17.12281,44.53801 -17.12281,-44.53801 -18.71345,0 -6.92398,77.19298 17.59065,0 3.64912,-45.75439 0.46784,0 15.81286,45.28655 10.47954,0 15.81286,-45.28655 0.46784,0 L 404.39766,230 Z"/>
		<path d="m 473.23977,152.80702 -16.2807,0 L 425.80118,230 l 18.90058,0 5.70761,-15.4386 29.38011,0 5.70761,15.4386 18.90058,0 -31.1579,-77.19298 z m 0.56141,46.31579 -17.40351,0 8.60819,-22.45614 0.18713,0 8.60819,22.45614 z"/>
		<path d="m 512.31726,152.80702 0,77.19298 22.36257,0 c 21.23977,0 38.92398,-16.09357 38.92398,-38.64328 0,-22.45614 -17.77778,-38.5497 -38.92398,-38.5497 l -22.36257,0 z m 17.59065,61.47368 0,-45.75439 2.71345,0 c 13.09941,0 21.9883,10.0117 21.9883,22.92398 -0.0936,12.91228 -8.98246,22.83041 -21.9883,22.83041 l -2.71345,0 z"/>
		<path d="m 586.39621,152.80702 0,77.19298 22.36257,0 c 21.23977,0 38.92398,-16.09357 38.92398,-38.64328 0,-22.45614 -17.77778,-38.5497 -38.92398,-38.5497 l -22.36257,0 z m 17.59064,61.47368 0,-45.75439 2.71345,0 c 13.09942,0 21.98831,10.0117 21.98831,22.92398 -0.0936,12.91228 -8.98246,22.83041 -21.98831,22.83041 l -2.71345,0 z"/>
		<path d="m 678.0658,152.80702 -17.59064,0 0,77.19298 17.59064,0 0,-77.19298 z"/>
		<path d="m 711.94007,182.09357 0.18714,0 30.69005,47.90643 17.59065,0 0,-77.19298 -17.59065,0 0,47.90643 -0.18713,0 -30.69006,-47.90643 -17.59064,0 0,77.19298 17.59064,0 0,-47.90643 z"/>
		<path d="m 846.45321,186.77193 -35.64912,0 0,13.56725 17.77777,0 c 0,9.45029 -8.32748,14.87719 -16.74853,14.87719 -10.8538,0 -19.64913,-10.66666 -19.64913,-23.76608 0,-13.38012 8.79533,-24.14035 19.64913,-24.14035 6.83041,0 12.72514,2.71345 17.21637,9.91813 l 11.50877,-12.63158 c -6.73684,-8.14035 -16.18713,-13.19298 -29.75438,-13.19298 -21.70761,0 -37.61404,17.87134 -37.61404,40.04678 0,22.08187 16.84211,39.95322 37.61404,39.95322 15.15789,0 31.43859,-8.32749 35.64912,-27.88304 l 0,-16.74854 z"/>
		<path d="m 927.8743,214.09357 c -17.68421,0 -25.45029,-12.35088 -25.45029,-22.73685 0,-10.29239 7.76608,-22.64327 25.45029,-22.64327 8.98246,0 15.1579,4.77193 15.1579,4.77193 l 7.48538,-14.97076 c 0,0 -8.60819,-7.11111 -25.35673,-7.11111 -21.89473,0 -41.82456,17.96491 -41.82456,40.14035 0,22.08187 20.02339,39.85965 41.82456,39.85965 16.74854,0 25.35673,-7.11111 25.35673,-7.11111 l -7.48538,-14.97076 c 0,0 -6.17544,4.77193 -15.1579,4.77193 z"/>
		<path d="m 962.33917,152.80702 0,77.19298 17.59065,0 0,-30.50292 23.57898,30.50292 22.3625,0 -26.57306,-31.90643 c 9.45026,-2.99416 15.81286,-10.76024 15.81286,-22.36258 0,-15.15789 -10.8538,-22.92397 -25.16959,-22.92397 l -27.60234,0 z m 17.59065,34.24561 0,-20.21053 2.05848,0 c 6.64327,0 14.59649,0.46784 14.59649,10.10527 0,9.63742 -7.95322,10.10526 -14.59649,10.10526 l -2.05848,0 z"/>
		<path d="m 1030.9459,191.35672 c 0,22.54971 16.0936,40.04679 38.924,40.04679 22.1754,0 38.8304,-17.49708 38.8304,-40.04679 0,-22.5497 -17.4035,-39.95321 -38.8304,-39.95321 -21.2398,0 -38.924,17.40351 -38.924,39.95321 z m 18.9942,0 c 0,-11.50877 6.3625,-23.01754 19.9298,-23.01754 13.6608,0 19.8362,11.50877 19.8362,23.01754 0,11.50878 -5.8011,23.01755 -19.8362,23.01755 -14.4094,0 -19.9298,-11.50877 -19.9298,-23.01755 z"/>
		<path d="m 1177.7661,230 19.462,0 21.9883,-77.19298 -19.462,0 -13.193,52.95906 -0.4678,0 -14.0351,-52.95906 -13.2866,0 -14.035,52.95906 -0.4679,0 -13.193,-52.95906 -19.5555,0 21.9883,77.19298 19.5555,0 12.3509,-43.32164 L 1177.7661,230 Z"/>
		<path d="m 1228.4357,152.80702 0,77.19298 22.3626,0 c 21.2398,0 38.924,-16.09357 38.924,-38.64328 0,-22.45614 -17.7778,-38.5497 -38.924,-38.5497 l -22.3626,0 z m 17.5907,61.47368 0,-45.75439 2.7134,0 c 13.0994,0 21.9883,10.0117 21.9883,22.92398 -0.093,12.91228 -8.9824,22.83041 -21.9883,22.83041 l -2.7134,0 z"/>
	</g>
	<g>
		<path d="m 373.58224,343.68421 13.75439,0 0,46.31579 13.19298,0 0,-46.31579 13.75438,0 0,-11.57895 -40.70175,0 0,11.57895 z"/>
		<path d="m 437.22807,366.77193 18.66667,0 0,23.22807 13.19298,0 0,-57.89474 -13.19298,0 0,23.08772 -18.66667,0 0,-23.08772 -13.19298,0 0,57.89474 13.19298,0 0,-23.22807 z"/>
		<path d="m 479.89255,361.01754 c 0,16.91228 12.07017,30.03509 29.19298,30.03509 16.63158,0 29.12281,-13.12281 29.12281,-30.03509 0,-16.91228 -13.05264,-29.96491 -29.12281,-29.96491 -15.92983,0 -29.19298,13.05263 -29.19298,29.96491 z m 14.24561,0 c 0,-8.63157 4.77193,-17.26315 14.94737,-17.26315 10.24561,0 14.87719,8.63158 14.87719,17.26315 0,8.63158 -4.35088,17.26316 -14.87719,17.26316 -10.80702,0 -14.94737,-8.63158 -14.94737,-17.26316 z"/>
		<path d="m 596.88926,390 13.19298,0 -5.19298,-57.89474 -14.03509,0 -12.8421,33.40351 -12.84211,-33.40351 -14.03509,0 -5.19298,57.89474 13.19298,0 2.73685,-34.31579 0.35087,0 11.85965,33.96491 7.85965,0 11.85965,-33.96491 0.35088,0 L 596.88926,390 Z"/>
		<path d="m 649.77083,332.10526 -12.21053,0 L 614.19188,390 l 14.17544,0 4.2807,-11.57895 22.03509,0 4.2807,11.57895 14.17544,0 -23.36842,-57.89474 z m 0.42105,34.73685 -13.05263,0 6.45614,-16.84211 0.14035,0 6.45614,16.84211 z"/>
		<path d="m 700.29165,331.05263 c -9.33333,0 -18.87719,6.8772 -18.87719,17.68421 0,6.03509 4.07018,11.4386 11.01755,14.8772 6.87719,3.43859 13.05263,5.33333 13.05263,9.54385 0,5.40351 -5.47369,5.68422 -8.35088,5.68422 -6.45614,0 -14.17544,-6.52632 -14.17544,-6.52632 l -6.59649,11.08772 c 0,0 8.21053,7.64912 21.75439,7.64912 11.29824,0 21.82456,-4.8421 21.82456,-18.66666 0,-7.57895 -7.08772,-13.05264 -13.54386,-15.78948 -6.59649,-2.80702 -12.07018,-5.12281 -12.07018,-8.35088 0,-3.15789 2.38597,-5.19298 6.8772,-5.19298 5.96491,0 11.71929,4 11.71929,4 l 5.33334,-10.52631 c 0,0 -7.4386,-5.47369 -17.96492,-5.47369 z"/>
		<path d="m 768.48904,366.77193 18.66667,0 0,23.22807 13.19298,0 0,-57.89474 -13.19298,0 0,23.08772 -18.66667,0 0,-23.08772 -13.19298,0 0,57.89474 13.19298,0 0,-23.22807 z"/>
		<path d="m 843.15349,332.10526 -12.21053,0 L 807.57454,390 l 14.17544,0 4.2807,-11.57895 22.03509,0 4.2807,11.57895 14.17544,0 -23.36842,-57.89474 z m 0.42105,34.73685 -13.05263,0 6.45614,-16.84211 0.14035,0 6.45614,16.84211 z"/>
		<path d="m 873.71162,332.10526 0,57.89474 13.19298,0 0,-22.87719 17.68421,22.87719 16.77193,0 -19.92982,-23.92982 c 7.08771,-2.24562 11.85964,-8.07018 11.85964,-16.77193 0,-11.36842 -8.14035,-17.19299 -18.87719,-17.19299 l -20.70175,0 z m 13.19298,25.68421 0,-15.15789 1.54386,0 c 4.98246,0 10.94737,0.35088 10.94737,7.57895 0,7.22807 -5.96491,7.57894 -10.94737,7.57894 l -1.54386,0 z"/>
		<path d="m 929.01316,332.10526 0,57.89474 16.77193,0 c 15.92983,0 29.19298,-12.07018 29.19298,-28.98246 0,-16.8421 -13.33333,-28.91228 -29.19298,-28.91228 l -16.77193,0 z m 13.19298,46.10527 0,-34.31579 2.03509,0 c 9.82456,0 16.49123,7.50877 16.49123,17.19298 -0.0702,9.68421 -6.73684,17.12281 -16.49123,17.12281 l -2.03509,0 z"/>
		<path d="m 973.20177,332.10526 21.33333,31.92983 0,25.96491 13.193,0 0,-25.96491 21.3333,-31.92983 -15.8596,0 -12.0702,18.52632 -12.07018,-18.52632 -15.85965,0 z"/>
	</g>
</svg>

<?xml version="1.0" encoding="utf-8"?>
<svg xmlns="http://www.w3.org/2000/svg" xmlns:svg="http://www.w3.org/2000/svg" version="1.1" viewBox="0 0 1400 440">
	<title>The titlepage for the Standard Ebooks edition of Far from the Madding Crowd, by Thomas Hardy</title>
	<g aria-label="FAR FROM">
		<path d="M 479.63889,52.807016 H 435.00731 V 130 h 17.59064 V 99.029239 h 24.98246 V 83.590642 H 452.59795 V 68.245613 h 27.04094 z"/>
		<path d="m 528.91959,52.807016 h -16.2807 L 481.48099,130 h 18.90059 l 5.7076,-15.4386 H 535.4693 L 541.1769,130 h 18.90058 z m 0.5614,46.31579 h -17.40351 l 8.60819,-22.45614 h 0.18713 z"/>
		<path d="M 567.99708,52.807016 V 130 h 17.59065 V 99.497075 L 609.16667,130 h 22.36258 l -26.5731,-31.906433 c 9.45029,-2.994152 15.81286,-10.760234 15.81286,-22.362574 0,-15.157895 -10.8538,-22.923977 -25.16959,-22.923977 z m 17.59065,34.245615 V 66.842104 h 2.05848 c 6.64327,0 14.59649,0.467836 14.59649,10.105263 0,9.637428 -7.95322,10.105264 -14.59649,10.105264 z"/>
		<path d="M 715.28217,52.807016 H 670.65059 V 130 h 17.59064 V 99.029239 h 24.98246 V 83.590642 H 688.24123 V 68.245613 h 27.04094 z"/>
		<path d="M 728.64766,52.807016 V 130 H 746.2383 V 99.497075 L 769.81725,130 h 22.36257 l -26.5731,-31.906433 c 9.45029,-2.994152 15.81287,-10.760234 15.81287,-22.362574 0,-15.157895 -10.8538,-22.923977 -25.16959,-22.923977 z M 746.2383,87.052631 V 66.842104 h 2.05848 c 6.64327,0 14.59649,0.467836 14.59649,10.105263 0,9.637428 -7.95322,10.105264 -14.59649,10.105264 z"/>
		<path d="m 797.25439,91.356724 c 0,22.549706 16.09357,40.046786 38.92398,40.046786 22.17544,0 38.83041,-17.49708 38.83041,-40.046786 0,-22.549708 -17.40351,-39.953217 -38.83041,-39.953217 -21.23977,0 -38.92398,17.403509 -38.92398,39.953217 z m 18.99416,0 c 0,-11.508772 6.36257,-23.017544 19.92982,-23.017544 13.66082,0 19.83626,11.508772 19.83626,23.017544 0,11.508776 -5.80117,23.017546 -19.83626,23.017546 -14.40936,0 -19.92982,-11.50877 -19.92982,-23.017546 z"/>
		<path d="M 951.58336,130 H 969.174 L 962.25002,52.807016 H 943.53657 L 926.41376,97.345029 909.29096,52.807016 H 890.57751 L 883.65353,130 h 17.59064 l 3.64913,-45.754387 h 0.46783 L 921.174,129.53216 h 10.47953 L 947.4664,84.245613 h 0.46783 z"/>
	</g>
	<g aria-label="THE MADDING CROWD">
		<path d="m 108.84794,168.24561 h 18.33919 V 230 h 17.59064 v -61.75439 h 18.33918 v -15.43859 h -54.26901 z"/>
		<path d="m 192.04239,199.02924 h 24.88889 V 230 h 17.59064 v -77.19298 h -17.59064 v 30.78362 H 192.04239 V 152.80702 H 174.45174 V 230 h 17.59065 z"/>
		<path d="M 294.88742,152.80702 H 250.72368 V 230 h 44.16374 v -15.4386 h -26.5731 v -15.53216 h 25.4503 v -15.4386 h -25.4503 v -15.34503 h 26.5731 z"/>
		<path d="m 404.39766,230 h 17.59064 l -6.92397,-77.19298 h -18.71345 l -17.12281,44.53801 -17.12281,-44.53801 H 343.39181 L 336.46783,230 h 17.59065 l 3.64912,-45.75439 h 0.46784 l 15.81286,45.28655 h 10.47954 l 15.81286,-45.28655 h 0.46784 z"/>
		<path d="m 473.23977,152.80702 h -16.2807 L 425.80118,230 h 18.90058 l 5.70761,-15.4386 h 29.38011 L 485.49709,230 h 18.90058 z m 0.56141,46.31579 h -17.40351 l 8.60819,-22.45614 h 0.18713 z"/>
		<path d="M 512.31726,152.80702 V 230 h 22.36257 c 21.23977,0 38.92398,-16.09357 38.92398,-38.64328 0,-22.45614 -17.77778,-38.5497 -38.92398,-38.5497 z m 17.59065,61.47368 v -45.75439 h 2.71345 c 13.09941,0 21.9883,10.0117 21.9883,22.92398 -0.0936,12.91228 -8.98246,22.83041 -21.9883,22.83041 z"/>
		<path d="M 586.39621,152.80702 V 230 h 22.36257 c 21.23977,0 38.92398,-16.09357 38.92398,-38.64328 0,-22.45614 -17.77778,-38.5497 -38.92398,-38.5497 z m 17.59064,61.47368 v -45.75439 h 2.71345 c 13.09942,0 21.98831,10.0117 21.98831,22.92398 -0.0936,12.91228 -8.98246,22.83041 -21.98831,22.83041 z"/>
		<path d="M 678.0658,152.80702 H 660.47516 V 230 h 17.59064 z"/>
		<path d="m 711.94007,182.09357 h 0.18714 L 742.81726,230 h 17.59065 v -77.19298 h -17.59065 v 47.90643 h -0.18713 L 711.94007,152.80702 H 694.34943 V 230 h 17.59064 z"/>
		<path d="m 846.45321,186.77193 h -35.64912 v 13.56725 h 17.77777 c 0,9.45029 -8.32748,14.87719 -16.74853,14.87719 -10.8538,0 -19.64913,-10.66666 -19.64913,-23.76608 0,-13.38012 8.79533,-24.14035 19.64913,-24.14035 6.83041,0 12.72514,2.71345 17.21637,9.91813 l 11.50877,-12.63158 c -6.73684,-8.14035 -16.18713,-13.19298 -29.75438,-13.19298 -21.70761,0 -37.61404,17.87134 -37.61404,40.04678 0,22.08187 16.84211,39.95322 37.61404,39.95322 15.15789,0 31.43859,-8.32749 35.64912,-27.88304 z"/>
		<path d="m 927.8743,214.09357 c -17.68421,0 -25.45029,-12.35088 -25.45029,-22.73685 0,-10.29239 7.76608,-22.64327 25.45029,-22.64327 8.98246,0 15.1579,4.77193 15.1579,4.77193 l 7.48538,-14.97076 c 0,0 -8.60819,-7.11111 -25.35673,-7.11111 -21.89473,0 -41.82456,17.96491 -41.82456,40.14035 0,22.08187 20.02339,39.85965 41.82456,39.85965 16.74854,0 25.35673,-7.11111 25.35673,-7.11111 l -7.48538,-14.97076 c 0,0 -6.17544,4.77193 -15.1579,4.77193 z"/>
		<path d="M 962.33917,152.80702 V 230 h 17.59065 V 199.49708 L 1003.5088,230 h 22.3625 l -26.57306,-31.90643 c 9.45026,-2.99416 15.81286,-10.76024 15.81286,-22.36258 0,-15.15789 -10.8538,-22.92397 -25.16959,-22.92397 z m 17.59065,34.24561 V 166.8421 h 2.05848 c 6.64327,0 14.59649,0.46784 14.59649,10.10527 0,9.63742 -7.95322,10.10526 -14.59649,10.10526 z"/>
		<path d="m 1030.9459,191.35672 c 0,22.54971 16.0936,40.04679 38.924,40.04679 22.1754,0 38.8304,-17.49708 38.8304,-40.04679 0,-22.5497 -17.4035,-39.95321 -38.8304,-39.95321 -21.2398,0 -38.924,17.40351 -38.924,39.95321 z m 18.9942,0 c 0,-11.50877 6.3625,-23.01754 19.9298,-23.01754 13.6608,0 19.8362,11.50877 19.8362,23.01754 0,11.50878 -5.8011,23.01755 -19.8362,23.01755 -14.4094,0 -19.9298,-11.50877 -19.9298,-23.01755 z"/>
		<path d="m 1177.7661,230 h 19.462 l 21.9883,-77.19298 h -19.462 l -13.193,52.95906 h -0.4678 l -14.0351,-52.95906 h -13.2866 l -14.035,52.95906 h -0.4679 l -13.193,-52.95906 h -19.5555 L 1133.5088,230 h 19.5555 l 12.3509,-43.32164 z"/>
		<path d="M 1228.4357,152.80702 V 230 h 22.3626 c 21.2398,0 38.924,-16.09357 38.924,-38.64328 0,-22.45614 -17.7778,-38.5497 -38.924,-38.5497 z m 17.5907,61.47368 v -45.75439 h 2.7134 c 13.0994,0 21.9883,10.0117 21.9883,22.92398 -0.093,12.91228 -8.9824,22.83041 -21.9883,22.83041 z"/>
	</g>
	<g aria-label="THOMAS HARDY">
		<path d="m 373.58224,343.68421 h 13.75439 V 390 h 13.19298 v -46.31579 h 13.75438 v -11.57895 h -40.70175 z"/>
		<path d="m 437.22807,366.77193 h 18.66667 V 390 h 13.19298 v -57.89474 h -13.19298 v 23.08772 H 437.22807 V 332.10526 H 424.03509 V 390 h 13.19298 z"/>
		<path d="m 479.89255,361.01754 c 0,16.91228 12.07017,30.03509 29.19298,30.03509 16.63158,0 29.12281,-13.12281 29.12281,-30.03509 0,-16.91228 -13.05264,-29.96491 -29.12281,-29.96491 -15.92983,0 -29.19298,13.05263 -29.19298,29.96491 z m 14.24561,0 c 0,-8.63157 4.77193,-17.26315 14.94737,-17.26315 10.24561,0 14.87719,8.63158 14.87719,17.26315 0,8.63158 -4.35088,17.26316 -14.87719,17.26316 -10.80702,0 -14.94737,-8.63158 -14.94737,-17.26316 z"/>
		<path d="m 596.88926,390 h 13.19298 l -5.19298,-57.89474 h -14.03509 l -12.8421,33.40351 -12.84211,-33.40351 H 551.13487 L 545.94189,390 h 13.19298 l 2.73685,-34.31579 h 0.35087 l 11.85965,33.96491 h 7.85965 l 11.85965,-33.96491 h 0.35088 z"/>
		<path d="M 649.77083,332.10526 H 637.5603 L 614.19188,390 h 14.17544 l 4.2807,-11.57895 h 22.03509 L 658.96381,390 h 14.17544 z m 0.42105,34.73685 H 637.13925 L 643.59539,350 h 0.14035 z"/>
		<path d="m 700.29165,331.05263 c -9.33333,0 -18.87719,6.8772 -18.87719,17.68421 0,6.03509 4.07018,11.4386 11.01755,14.8772 6.87719,3.43859 13.05263,5.33333 13.05263,9.54385 0,5.40351 -5.47369,5.68422 -8.35088,5.68422 -6.45614,0 -14.17544,-6.52632 -14.17544,-6.52632 l -6.59649,11.08772 c 0,0 8.21053,7.64912 21.75439,7.64912 11.29824,0 21.82456,-4.8421 21.82456,-18.66666 0,-7.57895 -7.08772,-13.05264 -13.54386,-15.78948 -6.59649,-2.80702 -12.07018,-5.12281 -12.07018,-8.35088 0,-3.15789 2.38597,-5.19298 6.8772,-5.19298 5.96491,0 11.71929,4 11.71929,4 l 5.33334,-10.52631 c 0,0 -7.4386,-5.47369 -17.96492,-5.47369 z"/>
		<path d="m 768.48904,366.77193 h 18.66667 V 390 h 13.19298 v -57.89474 h -13.19298 v 23.08772 H 768.48904 V 332.10526 H 755.29606 V 390 h 13.19298 z"/>
		<path d="M 843.15349,332.10526 H 830.94296 L 807.57454,390 h 14.17544 l 4.2807,-11.57895 h 22.03509 L 852.34647,390 h 14.17544 z m 0.42105,34.73685 H 830.52191 L 836.97805,350 h 0.14035 z"/>
		<path d="M 873.71162,332.10526 V 390 H 886.9046 V 367.12281 L 904.58881,390 h 16.77193 l -19.92982,-23.92982 c 7.08771,-2.24562 11.85964,-8.07018 11.85964,-16.77193 0,-11.36842 -8.14035,-17.19299 -18.87719,-17.19299 z m 13.19298,25.68421 v -15.15789 h 1.54386 c 4.98246,0 10.94737,0.35088 10.94737,7.57895 0,7.22807 -5.96491,7.57894 -10.94737,7.57894 z"/>
		<path d="M 929.01316,332.10526 V 390 h 16.77193 c 15.92983,0 29.19298,-12.07018 29.19298,-28.98246 0,-16.8421 -13.33333,-28.91228 -29.19298,-28.91228 z m 13.19298,46.10527 v -34.31579 h 2.03509 c 9.82456,0 16.49123,7.50877 16.49123,17.19298 -0.0702,9.68421 -6.73684,17.12281 -16.49123,17.12281 z"/>
		<path d="m 973.20177,332.10526 21.33333,31.92983 V 390 h 13.193 v -25.96491 l 21.3333,-31.92983 h -15.8596 l -12.0702,18.52632 -12.07018,-18.52632 z"/>
	</g>
</svg>
